X:1
T:Siciliana
T:Siciliano
T:Johann Sebastian Bach Arr.: Fabian Payr 
T:from Sonata No. 2 in E♭ Major for Flute and Harpischord BWV 1031
C:Johann Sebastian Bach
%%score 1 ( 2 3 )
L:1/8
Q:1/8=100
M:6/8
K:C
V:1 treble nm="Nyckelharpa"
V:2 treble-8 nm="Gitarre"
V:3 treble-8 
V:1
 E>FE EAF | D6 | vD>ED DBD |{/D} C>B,A, z2 z | vCEF- FdF | FE z GcG- | GAG- GFE | %7
 vD/G/B/d/c/e/ (d/c/B/)A/G/F/ | E z z z2 z | G>AG GcA | F6 | vF>GF FdF | E/(G,/A,/B,/C/D/) E/G/cE | %13
 (E D2-) DBD- | D/(B,/C/E/)A/B/ c>BA | B>AG- G/u^F/A/G/F/E/ | ^D2 E (^F/^A/B/)F/G/E/ | %17
 ^D2 E (^F/^A/B/)F/G/E/ | ^D/E/^FB, C/(E/^D/E/^F/E/) | B,/(E/^D/E/^F/E/) A,/C/B,/A,/G,/^F,/ | %20
 G,E, z z2 z | z6 | vE>FE EAF | D6 | vD>ED DBD | C/(A,/B,/C/D/E/) (F/G/F/)E/D/C/ | %26
 (B,/^D/E/)B,/C/A,/ ^G,2 A, | (B,/^D/E/)B,/C/A,/ ^G,2 A, | B,/A,/B,/C/D/E/ F(!tenuto!E!tenuto!D) | %29
 C/E/D/C/B,/A,/ F/>D/ CB, | A,EC A,AC | z/ (uC/"^rit."B,/C/)A/C/ (C/>D/){C} B,2 | !fermata!A,6 |] %33
V:2
"^I" c/!2!A/c/A/^G/A/ c/A/c/A/G/A/ | !4!B/!3!d/!1!f/d/B/d/ B/d/f/d/B/d/ | %2
 !0!B/!2!E/B/!1!^G/!4!^F/G/ !1!E/!0!B/!2!d/B/E/B/ | %3
 A,/B/!2!A/^G/!3!A/!2!E/"^2""^I" !1!c/f/e/d/e/c/ |"^I" A,/A/c/A/^G/A/ B,/"^2""^I"!4!d/!1!f/d/c/d/ | %5
 =G/!4!d/c/B/c/G/ E/c/e/!1!c/!4!B/c/ |"^I" A/c/f/c/!4!_B/c/ A/c/d/!0!=B/!1!c/!3!A/ | BG z z2 z | %8
 z/ G/B/d/!1!c/e/ !4!d/c/B/A/G/F/ | e/c/e/c/B/c/ e/c/e/c/B/c/ | !4!d/!3!F/A/F/D/F/ C/F/A/F/D/F/ | %11
 !4!d/G/d/B/A/B/ G/!4!d/!1!f/d/G/d/ | cz/G/A/B/ !1!c/d/e/c/G/c/- | %13
 c/A/B/^F/G/A/ !0!B/!4!c/!2!d/!0!B/!1!E/B/- | B/^G/A/B/c/d/ e/!3!e/!4!a/!2!=g/!1!^f/!0!e/ | %15
 !3!d/d/!4!g/!1!^f/!0!e/!3!d/ c/d/c/B/A/G/ | !4!^F/!3!^A/B/F/G/!3!E/ !1!^D2 E | %17
 !4!^F/^A/B/F/G/E/ ^D2"^II" E | ^F!1!B, z z2 z | z6 | z2 e !3!=f/!2!a/!1!^g/a/b/a/ | %21
 !3!e/!4!a/!2!^g/a/!4!b/!1!a/ !4!d/f/!0!e/!4!d/!2!c/!0!B/ |"^I" c/A/c/A/^G/A/ c/A/c/A/G/A/ | %23
 !4!B/!3!d/!1!f/d/B/d/ B/d/f/d/B/d/ | B/E/B/!1!^G/!4!^F/G/ !1!E/B/d/B/E/B/ | A>=GF/E/ Dd/c/B/A/ | %26
 ^G2 A !3!B/!4!^d/!0!e/B/!1!c/!2!A/ | !1!^G2 A !3!B/!4!^d/!0!e/B/!1!c/!2!A/ | %28
 ^G/^F/G/A/B/!4!c/ !1!d!4!cB | A3- A/>B/A/^G/-G | A,/A/c/A/^G/A/"^I" !3!C/A/c/A/G/A/ | %31
 !1!^D/!3!A/"_rit."^G/A/c/A/- A/>B/{A} G2 | !fermata!A6 |] %33
V:3
 A,2 z A,2 z | A,2 z A,2 z | !4!^G,2 z !3!G,2 z | A,2 z A,2 z | A,2 z !2!B,2 z | !3!C2 z C2 z | %6
 F,2 z F,3/2 z/ !2!^F, | !4!G,2 A, B,G,B, | !3!C!3!G,A, !2!B,!3!G,B, | C2 z C2 z | !2!C2 z C2 z | %11
 !2!B,2 z B,2 z | C2 z !3!C2 z | !3!G,2 z !3!^G,2 z | A,2 z A,2 D | !2!G,2 !2!C A,3 | %16
 !1!B,2 z !2!B,2 z | !1!B,2 z B,2 z | B,/B/B,/!0!A,/!2!G,/!0!E,/ !4!A,2 z | %19
 !2!G,2 z !2!^F,!1!^DB, | E,/B,/E/=D/C/A,/ D2 z | !1!C2 z !3!B,!1!^G,E, | A,2 z A,2 z | %23
 A,2 z A,2 z | !4!^G,2 z !3!G,2 z | A,2 z D2 z | E,2 z E,2 z | E,2 z E,2 z | E,2 z !2!^G,2 z | %29
 A,B,C DEE, | A,2 z F,2 z | ^D2 z E,2 E, | A,6 |] %33

